X:116
T: Bangchui da zai shitou shang
N: C1610
O: China,nan Anhui
S: III, 582]
R: Shange, Mengjiangn diao. Nann qing]
M: 2/4
L: 1/16
K: G
EGB,DD2EG | GABdeddB | A6
Bd | A2d2B2AB | EGEDD4- | D4
D2E2 | EGABdBA2 | E4
G2A2 | BdEGED3 |
EGEDD2EG | GABdedB2 | A6
Bd | A2d2B2AB | E2GED4- | D4
D2E2 | EGABdBA2 | GE3
G2A2 | BdGED4 |
EGABdBA2 | GE3
G2A2 | d2E2D4

@@@ Tune index: 6671
